packages/wallets/icons/bitpie.svg

<svg height="64" viewBox="0 0 64 64" width="64" xmlns="http://www.w3.org/2000/svg" xmlns:xlink="http://www.w3.org/1999/xlink"><linearGradient id="a"><stop offset="0" stop-color="#1e3da0"/><stop offset="1" stop-color="#3750de"/></linearGradient><linearGradient id="b" x1="52.54575%" x2="52.54575%" xlink:href="#a" y1="100%" y2="0%"/><linearGradient id="c" x1="50%" x2="50%" y1="0%" y2="100%"><stop offset="0" stop-color="#1d3ba3" stop-opacity="0"/><stop offset="1" stop-color="#173793" stop-opacity=".652938"/></linearGradient><linearGradient id="d" x1="50%" x2="50%" xlink:href="#a" y1="100%" y2="0%"/><g fill="none" fill-rule="evenodd"><path d="m18 0h28c9.9411255 0 18 8.0588745 18 18v28c0 9.9411255-8.0588745 18-18 18h-28c-9.9411255 0-18-8.0588745-18-18v-28c0-9.9411255 8.0588745-18 18-18z" fill="url(#b)"/><circle cx="32.285714" cy="32.285714" fill="#fff" r="24.285714"/><path d="m32 0c17.673112 0 32 14.326888 32 32s-14.326888 32-32 32-32-14.326888-32-32 14.326888-32 32-32zm-.1434978 7.60538117c-13.4727759 0-24.39461879 10.92184283-24.39461879 24.39461883s10.92184289 24.3946188 24.39461879 24.3946188c13.472776 0 24.3946189-10.9218428 24.3946189-24.3946188s-10.9218429-24.39461883-24.3946189-24.39461883z" fill="url(#c)"/><path d="m29.0909091 44.3636364c0 2.0083081-1.6280555 3.6363636-3.6363636 3.6363636-2.0083082 0-3.6363637-1.6280555-3.6363637-3.6363636l-.0001818-2.1826364-2.1816364.0008182c-2.0083081 0-3.6363636-1.6280555-3.6363636-3.6363637 0-2.0083081 1.6280555-3.6363636 3.6363636-3.6363636l2.1816364-.0000909v-5.819l-2.1816364.0009091c-2.0083081 0-3.6363636-1.6280555-3.6363636-3.6363636 0-2.0083082 1.6280555-3.6363637 3.6363636-3.6363637l2.1816364-.0001818.0001818-2.1816364c0-2.0083081 1.6280555-3.6363636 3.6363637-3.6363636 2.0083081 0 3.6363636 1.6280555 3.6363636 3.6363636l-.0009091 2.1816364h5.819l.0000909-2.1816364c0-2.0083081 1.6280555-3.6363636 3.6363636-3.6363636 2.0083082 0 3.6363637 1.6280555 3.6363637 3.6363636l-.0008182 2.1816364 2.1826364.0001818c2.0083081 0 3.6363636 1.6280555 3.6363636 3.6363637 0 2.0083081-1.6280555 3.6363636-3.6363636 3.6363636l-2.1826364-.0009091v5.819l2.1826364.0000909c2.0083081 0 3.6363636 1.6280555 3.6363636 3.6363636 0 2.0083082-1.6280555 3.6363637-3.6363636 3.6363637l-2.1826364-.0008182.0008182 2.1826364c0 2.0083081-1.6280555 3.6363636-3.6363637 3.6363636-2.0083081 0-3.6363636-1.6280555-3.6363636-3.6363636l-.0000909-2.1826364h-5.819zm-.0009091-9.4546364h5.819v-5.819h-5.819z" fill="url(#d)" transform="matrix(.8660254 -.5 .5 .8660254 -11.712813 20.287187)"/></g></svg>

<svg width="64px" height="64px" viewBox="0 0 64 64" version="1.1" xmlns="http://www.w3.org/2000/svg">
    <defs>
        <linearGradient x1="52.5457501%" y1="100%" x2="52.5457504%" y2="0%" id="linearGradient-1">
            <stop stop-color="#1E3DA0" offset="0%"></stop>
            <stop stop-color="#3750DE" offset="100%"></stop>
        </linearGradient>
        <linearGradient x1="50%" y1="0%" x2="50%" y2="100%" id="linearGradient-2">
            <stop stop-color="#1D3BA3" stop-opacity="0" offset="0%"></stop>
            <stop stop-color="#173793" stop-opacity="0.652938179" offset="100%"></stop>
        </linearGradient>
        <linearGradient x1="50%" y1="100%" x2="50%" y2="0%" id="linearGradient-3">
            <stop stop-color="#1E3DA0" offset="0%"></stop>
            <stop stop-color="#3750DE" offset="100%"></stop>
        </linearGradient>
    </defs>
    <g id="设计" stroke="none" stroke-width="1" fill="none" fill-rule="evenodd">
        <g id="icon_logo">
            <path
                d="M18,0 L46,0 C55.9411255,-1.82615513e-15 64,8.0588745 64,18 L64,46 C64,55.9411255 55.9411255,64 46,64 L18,64 C8.0588745,64 1.21743675e-15,55.9411255 0,46 L0,18 C-1.21743675e-15,8.0588745 8.0588745,1.82615513e-15 18,0 Z"
                id="Combined-Shape" fill="url(#linearGradient-1)"></path>
            <circle id="Oval-5" fill="#FFFFFF" cx="32.2857143" cy="32.2857143" r="24.2857143"></circle>
            <path
                d="M32,0 C49.673112,0 64,14.326888 64,32 C64,49.673112 49.673112,64 32,64 C14.326888,64 0,49.673112 0,32 C0,14.326888 14.326888,0 32,0 Z M31.8565022,7.60538117 C18.3837263,7.60538117 7.46188341,18.527224 7.46188341,32 C7.46188341,45.472776 18.3837263,56.3946188 31.8565022,56.3946188 C45.3292782,56.3946188 56.2511211,45.472776 56.2511211,32 C56.2511211,18.527224 45.3292782,7.60538117 31.8565022,7.60538117 Z"
                id="Combined-Shape" fill="url(#linearGradient-2)"></path>
            <path
                d="M29.0909091,44.3636364 C29.0909091,46.3719445 27.4628536,48 25.4545455,48 C23.4462373,48 21.8181818,46.3719445 21.8181818,44.3636364 L21.818,42.181 L19.6363636,42.1818182 C17.6280555,42.1818182 16,40.5537627 16,38.5454545 C16,36.5371464 17.6280555,34.9090909 19.6363636,34.9090909 L21.818,34.909 L21.818,29.09 L19.6363636,29.0909091 C17.6280555,29.0909091 16,27.4628536 16,25.4545455 C16,23.4462373 17.6280555,21.8181818 19.6363636,21.8181818 L21.818,21.818 L21.8181818,19.6363636 C21.8181818,17.6280555 23.4462373,16 25.4545455,16 C27.4628536,16 29.0909091,17.6280555 29.0909091,19.6363636 L29.09,21.818 L34.909,21.818 L34.9090909,19.6363636 C34.9090909,17.6280555 36.5371464,16 38.5454545,16 C40.5537627,16 42.1818182,17.6280555 42.1818182,19.6363636 L42.181,21.818 L44.3636364,21.8181818 C46.3719445,21.8181818 48,23.4462373 48,25.4545455 C48,27.4628536 46.3719445,29.0909091 44.3636364,29.0909091 L42.181,29.09 L42.181,34.909 L44.3636364,34.9090909 C46.3719445,34.9090909 48,36.5371464 48,38.5454545 C48,40.5537627 46.3719445,42.1818182 44.3636364,42.1818182 L42.181,42.181 L42.1818182,44.3636364 C42.1818182,46.3719445 40.5537627,48 38.5454545,48 C36.5371464,48 34.9090909,46.3719445 34.9090909,44.3636364 L34.909,42.181 L29.09,42.181 L29.0909091,44.3636364 Z M29.09,34.909 L34.909,34.909 L34.909,29.09 L29.09,29.09 L29.09,34.909 Z"
                id="Combined-Shape" fill="url(#linearGradient-3)"
                transform="translate(32.000000, 32.000000) rotate(-30.000000) translate(-32.000000, -32.000000) "></path>
        </g>
    </g>
</svg>
